X: 201177
T: Tipperary Fancy
T: Matt Molloy's (Treoir 37/2)
T: Dickie Sherlock's
R: reel
S: "Ace and Deuce" (C.McCarthy, A.McCormack, E.O Donoghue)
Z: B.Black
M: 4/4
L: 1/8
K: D
dB|AF ~F2 BFAF|DEFA BABd|eB ~B2 egfe|dfed BcdB|
AF ~F2 BFAF|DEFA BABd|g2 fg ecdB|AFGE D2 :|
Bc|d3e fefg|afbf afgf|eB ~B2 gB ~B2|fedf ecdB|
AF ~F2 ABde|afbf af d2|~g2 fg ecdB|AFGE D2 :|
